X: 2172
T: Şevk`efzâ Seyir
C: Rauf Yektâ
O: Turkey
F: http://compmusic.upf.edu/node/140
N: sevkefza--seyir--semai--1--rauf_yekta
N: makam= sevkefza
N: form= seyir
N: usul= semai = 3/4
M: 3/4
L: 1/16
K: C _B _7/8d  
Q: 1/4=120
%%MIDI tuningsystem comma53
c8 g4  | g8 _7/8a4  | g4 f4 e4  | d4 c8  | \
w:   |   |   |   | 
c4 d4 e4  | f4 g4 _7/8a4  | g2f2 e4 f4  | \
w:   |   |   | 
g8 z4  | 
w:   | 
g8 _7/8a4  | _7/8a8 g4  | c'4 =b4 _7/8a4  | \
w:   |   |   | 
_7/8a4 g4 f4  | e4 f4 g4  | =b4 _7/8a4 g4  | \
w:   |   |   | 
g4 f4 e4  | f8 z4  | 
w:   |   | 
e4 f4 g4  | _7/8a8 g4  | g8 f4  | e4 d4 c4  | \
w:   |   |   |   | 
c4 d4 e4  | f4 e4 d4  | c4 B4 A4  | B8 z4  | 
w:   |   |   |   | 
A4 B4 c4  | d8 c4  | c8 B4  | A4 G4 F4  | G4 _7/8A4 G4  | \
w:   |   |   |   |   | 
c2=B2 _7/8A4 G4  | G4 F4 E4  | F8 z4  | 
w:   |   |   | 
|


